X: 10921
T: MAJOR GRAHAM OF INCHBRAKIE
Q: "Slow"
%R: reel, march
B: "Edinburgh Repository of Music" v.1 p.92 #1
F: http://digital.nls.uk/special-collections-of-printed-music/pageturner.cfm?id=87776133
Z: 2015 John Chambers <jc:trillian.mit.edu>
N: The 2nd strain has initial repeat but no final repeat; not fixed.
M: C
L: 1/8
K: G
G |\
D>EGG ~G2 g>e | dB A>G A3 B |\
D>EGG G2 g>e | d<B TA>B G3 :|\
|: d |\
g>agf edeg | d<B AG A3 d |
g>agf e>de<g | d<B TAB G3 d |\
g>agf e>deg | e/d/c/B/ c/B/A/G/ A3 B |\
D>EGG G2 g>e | d<B TA>B G3 |]
